icons/unread-24.svg

<svg width="24" height="24" viewBox="0 0 24 24" fill="none" xmlns="http://www.w3.org/2000/svg">
<g clip-path="url(#clip0_8547_104431)">
<path d="M1.75 4.5C1.61193 4.5 1.5 4.61193 1.5 4.75V5.60161L11.8601 12.6016C11.9446 12.6588 12.0554 12.6588 12.14 12.6016L17.8301 8.75695C18.1733 8.52505 18.6396 8.61529 18.8715 8.9585C19.1034 9.30171 19.0131 9.76793 18.6699 9.99984L12.9798 13.8445C12.3878 14.2445 11.6122 14.2445 11.0203 13.8445L1.5 7.41191V19.25C1.5 19.3881 1.61193 19.5 1.75 19.5H22.25C22.3881 19.5 22.5 19.3881 22.5 19.25V10.75C22.5 10.3358 22.8358 10 23.25 10C23.6642 10 24 10.3358 24 10.75V19.25C24 20.2165 23.2165 21 22.25 21H1.75C0.783502 21 4.80213e-10 20.2165 4.80213e-10 19.25V6.00891C-8.13279e-05 6.00253 -8.14329e-05 5.99614 4.80213e-10 5.98976V4.75C4.80213e-10 3.7835 0.783502 3 1.75 3H17.25C17.6642 3 18 3.33579 18 3.75C18 4.16421 17.6642 4.5 17.25 4.5H1.75Z" fill="#24292F"/>
<path d="M24 5.5C24 6.88071 22.8807 8 21.5 8C20.1193 8 19 6.88071 19 5.5C19 4.11929 20.1193 3 21.5 3C22.8807 3 24 4.11929 24 5.5Z" fill="#24292F"/>
</g>
<defs>
<clipPath id="clip0_8547_104431">
<rect width="24" height="24" fill="white"/>
</clipPath>
</defs>
</svg>

<svg xmlns="http://www.w3.org/2000/svg" width="24" height="24" viewBox="0 0 24 24"><path d="M1.75 4.5a.25.25 0 00-.25.25v.852l10.36 7a.25.25 0 00.28 0l5.69-3.845A.75.75 0 0118.67 10l-5.69 3.845c-.592.4-1.368.4-1.96 0L1.5 7.412V19.25c0 .138.112.25.25.25h20.5a.25.25 0 00.25-.25v-8.5a.75.75 0 011.5 0v8.5A1.75 1.75 0 0122.25 21H1.75A1.75 1.75 0 010 19.25V4.75C0 3.784.784 3 1.75 3h15.5a.75.75 0 010 1.5H1.75z"/><path d="M24 5.5a2.5 2.5 0 11-5 0 2.5 2.5 0 015 0z"/></svg>
